X:29
T:RVW2/2/29 How Old Are You?
C:Willingale Doe, Essex, 14 April 1904
L:1/8
Q:1/4=80
M:2/4
I:linebreak $
K:G
"^(Editorial suggestion)  " e | dB BA | GG GB | dd GB |[M:3/4] d2 !fermata!e3 f |$ ge g2 a2 | 
w: "How|old are you my|pret- ty maid how|old are you my|ho- ney?" She|an- swered me right|
ef g2 fe |[M:2/4] ed BA | ef gB |$[M:3/4] B/A/A/A/ A4 | A/B/c/A/ G4 |[M:2/4] Ae/e/ e/d/c/d/ | 
w: cheer- ful- ly "I was|se- ven- teen come|Sun- day" With my|ri- mi- di- mi- da-|fol- de- rid- dle- da|right- fol- de- rid- dle- did- dle-|
B2 A2 |] 
w: i- do.|



